X: 3080
T: DUNDERAVE
Q:"Reel."
R: Reel.
%R:reel
B: James Kerr "Merry Melodies" v.3 p.10 #80
Z: 2016 John Chambers <jc:trillian.mit.edu>
M: C
L: 1/8
K: A
|:\
vcdBc Aced | cdBc A2(Bc) |\
decd Bdfe | decd B2(ed) ::\
caga ecAc |
eaga e2(dc) |\
[1 fbab fdBc | defg afed :|\
[2 Bcde fgaf | ecAc B2e2 |]

%%sep 1 1 500
%%sep 1 1 500

